img/icons/categories/03.svg

<svg width="54" height="60" viewBox="0 0 54 60" fill="none" xmlns="http://www.w3.org/2000/svg">
<path d="M40.7736 59.9998H0.647171C0.343757 59.9998 0.116211 59.7722 0.116211 59.5447V2.95805C0.116211 2.65464 0.343757 2.50293 0.647171 2.50293H40.7736C41.077 2.50293 41.3046 2.73049 41.3046 2.95805V59.5447C41.2287 59.7722 41.077 59.9998 40.7736 59.9998ZM1.1023 59.0137H40.2426V3.48902H1.1023V59.0137Z" fill="black"/>
<path d="M48.8139 59.166C48.6622 59.166 48.4347 59.0901 48.3588 58.8626L43.8835 49.6085C43.8835 49.5326 43.8076 49.4568 43.8076 49.3809V17.5225C43.8076 17.2191 44.0352 17.0674 44.3386 17.0674H53.2893C53.5927 17.0674 53.8202 17.2949 53.8202 17.5225V49.4568C53.8202 49.5326 53.8202 49.6085 53.7444 49.6843L49.269 58.9384C49.1932 59.0901 48.9656 59.166 48.8139 59.166ZM44.7937 49.3051L48.8139 57.5731L52.8342 49.3051V17.9776H44.7937V49.3051Z" fill="black"/>
<path d="M48.8142 59.1658C48.6625 59.1658 48.435 59.09 48.3591 58.8624L47.0696 56.2075C46.9937 56.0558 46.9937 55.9041 47.0696 55.7524C47.1454 55.6007 47.2213 55.5248 47.373 55.449C48.2074 55.2214 49.2693 55.2214 50.1796 55.449C50.3313 55.449 50.483 55.6007 50.483 55.7524C50.5588 55.9041 50.5588 56.0558 50.483 56.2075L49.1935 58.8624C49.1935 59.09 48.9659 59.1658 48.8142 59.1658ZM48.2832 56.4351L48.8142 57.5729L49.3452 56.4351C48.9659 56.3592 48.5867 56.3592 48.2832 56.4351Z" fill="black"/>
<path d="M46.3109 48.5465C46.0169 48.5465 45.7964 48.3206 45.7964 48.0947V17.5192C45.7964 17.218 46.0169 17.0674 46.3109 17.0674C46.6048 17.0674 46.8253 17.2933 46.8253 17.5192V48.0947C46.8253 48.3206 46.6048 48.5465 46.3109 48.5465Z" fill="#C47A2D"/>
<path d="M48.6583 48.5459C48.3657 48.5459 48.2194 48.3211 48.1463 48.0962L48 17.5159C48 17.2161 48.2194 16.9912 48.4389 16.9912C48.7315 16.9912 48.8778 17.2161 48.9509 17.4409L49.0973 48.0212C49.0973 48.3211 48.8778 48.5459 48.6583 48.5459Z" fill="#C47A2D"/>
<path d="M51.0138 49.3051C50.7247 49.3051 50.5078 49.0775 50.5078 48.8499V17.5225C50.5078 17.2191 50.7247 17.0674 51.0138 17.0674C51.3029 17.0674 51.5198 17.2949 51.5198 17.5225V48.7741C51.4475 49.0775 51.2307 49.3051 51.0138 49.3051Z" fill="#C47A2D"/>
<path d="M53.2893 17.9774H44.3386C44.0352 17.9774 43.8076 17.7498 43.8076 17.5223V15.1708C43.8076 13.5779 45.0971 12.3643 46.6142 12.3643H50.9378C52.5307 12.3643 53.7444 13.6538 53.7444 15.1708V17.5223C53.8202 17.7498 53.5927 17.9774 53.2893 17.9774ZM44.7937 16.9913H52.7583V15.1708C52.7583 14.1847 51.9239 13.3504 50.9378 13.3504H46.6142C45.6281 13.3504 44.7937 14.1847 44.7937 15.1708V16.9913Z" fill="black"/>
<path d="M34.0227 18.432H7.39817C7.09476 18.432 6.86719 18.2044 6.86719 17.9769V11.5293C6.86719 11.2259 7.09476 11.0742 7.39817 11.0742H34.0227C34.3261 11.0742 34.5537 11.3018 34.5537 11.5293V17.9769C34.5537 18.2044 34.3261 18.432 34.0227 18.432ZM7.85327 17.4459H33.4917V11.9845H7.85327V17.4459Z" fill="#C47A2D"/>
<path d="M33.5678 22.6798H7.9294C7.62598 22.6798 7.39844 22.4522 7.39844 22.2247C7.39844 21.9971 7.62598 21.7695 7.9294 21.7695H33.5678C33.8713 21.7695 34.0988 21.9971 34.0988 22.2247C34.0988 22.4522 33.7954 22.6798 33.5678 22.6798Z" fill="black"/>
<path d="M33.5678 26.7003H7.9294C7.62598 26.7003 7.39844 26.4727 7.39844 26.2452C7.39844 25.9417 7.62598 25.79 7.9294 25.79H33.5678C33.8713 25.79 34.0988 26.0176 34.0988 26.2452C34.0229 26.4727 33.7954 26.7003 33.5678 26.7003Z" fill="black"/>
<path d="M33.5676 30.7208H15.8938C15.5903 30.7208 15.3628 30.4932 15.3628 30.2657C15.3628 29.9623 15.5903 29.8105 15.8938 29.8105H33.5676C33.871 29.8105 34.0986 30.0381 34.0986 30.2657C34.0227 30.4932 33.7952 30.7208 33.5676 30.7208Z" fill="black"/>
<path d="M27.12 34.7413H7.85323C7.54981 34.7413 7.32227 34.5137 7.32227 34.2862C7.32227 33.9828 7.54981 33.8311 7.85323 33.8311H27.12C27.4234 33.8311 27.651 34.0586 27.651 34.2862C27.5751 34.5137 27.3476 34.7413 27.12 34.7413Z" fill="black"/>
<path d="M33.5678 38.7608H7.9294C7.62598 38.7608 7.39844 38.5333 7.39844 38.3057C7.39844 38.0023 7.62598 37.8506 7.9294 37.8506H33.5678C33.8713 37.8506 34.0988 38.0781 34.0988 38.3057C34.0229 38.5333 33.7954 38.7608 33.5678 38.7608Z" fill="black"/>
<path d="M33.5675 42.7813H13.3147C13.0113 42.7813 12.7837 42.5538 12.7837 42.3262C12.7837 42.0228 13.0113 41.8711 13.3147 41.8711H33.5675C33.8709 41.8711 34.0985 42.0987 34.0985 42.3262C34.0226 42.5538 33.7951 42.7813 33.5675 42.7813Z" fill="black"/>
<path d="M33.5678 46.8018H7.9294C7.62598 46.8018 7.39844 46.5743 7.39844 46.3467C7.39844 46.0433 7.62598 45.8916 7.9294 45.8916H33.5678C33.8713 45.8916 34.0988 46.1192 34.0988 46.3467C34.0229 46.5743 33.7954 46.8018 33.5678 46.8018Z" fill="black"/>
<path d="M36.6016 5.91656C36.2982 5.91656 36.0706 5.689 36.0706 5.46144V0.45512C36.0706 0.151707 36.2982 0 36.6016 0C36.905 0 37.1326 0.22756 37.1326 0.45512V5.38559C37.1326 5.689 36.905 5.91656 36.6016 5.91656ZM31.2919 5.91656C30.9885 5.91656 30.7609 5.689 30.7609 5.46144V0.45512C30.7609 0.151707 30.9885 0 31.2919 0C31.5953 0 31.8228 0.22756 31.8228 0.45512V5.38559C31.8228 5.689 31.5953 5.91656 31.2919 5.91656ZM25.9821 5.91656C25.6787 5.91656 25.4512 5.689 25.4512 5.46144V0.45512C25.4512 0.151707 25.6787 0 25.9821 0C26.2856 0 26.5131 0.22756 26.5131 0.45512V5.38559C26.5131 5.689 26.2856 5.91656 25.9821 5.91656ZM20.6724 5.91656C20.369 5.91656 20.1414 5.689 20.1414 5.46144V0.45512C20.1414 0.151707 20.369 0 20.6724 0C20.9758 0 21.2034 0.22756 21.2034 0.45512V5.38559C21.2034 5.689 20.9758 5.91656 20.6724 5.91656ZM15.3627 5.91656C15.0593 5.91656 14.8317 5.689 14.8317 5.46144V0.45512C14.8317 0.151707 15.0593 0 15.3627 0C15.6661 0 15.8936 0.22756 15.8936 0.45512V5.38559C15.8936 5.689 15.6661 5.91656 15.3627 5.91656ZM10.0529 5.91656C9.74953 5.91656 9.52196 5.689 9.52196 5.46144V0.45512C9.52196 0.151707 9.74953 0 10.0529 0C10.3564 0 10.5839 0.22756 10.5839 0.45512V5.38559C10.5839 5.689 10.3564 5.91656 10.0529 5.91656ZM4.81905 5.91656C4.51563 5.91656 4.28809 5.689 4.28809 5.46144V0.45512C4.28809 0.151707 4.51563 0 4.81905 0C5.12246 0 5.35003 0.22756 5.35003 0.45512V5.38559C5.27417 5.689 5.04661 5.91656 4.81905 5.91656Z" fill="black"/>
<path d="M53.3651 49.9119C53.2893 49.9119 53.2134 49.9119 53.1376 49.8361L51.6964 49.0017L50.7861 49.7602C50.6344 49.9119 50.331 49.9119 50.1793 49.7602L48.7381 48.6983L47.752 49.6844C47.6761 49.7602 47.5244 49.8361 47.3727 49.8361C47.221 49.8361 47.1452 49.7602 46.9935 49.6844L46.0074 48.6983L44.5662 49.7602C44.3386 49.9119 44.0352 49.8361 43.8835 49.6844C43.7318 49.4568 43.8076 49.1534 43.9593 49.0017L45.7798 47.7122C46.0074 47.5605 46.2349 47.5605 46.3866 47.788L47.2969 48.6983L48.2071 47.788C48.3588 47.6363 48.6622 47.5605 48.8139 47.7122L50.2552 48.7741L51.1654 48.0156C51.3171 47.8639 51.5447 47.8639 51.7722 47.9397L53.5169 49.0017C53.7444 49.1534 53.8203 49.4568 53.6686 49.6844C53.7444 49.8361 53.5927 49.9119 53.3651 49.9119Z" fill="black"/>
</svg>

<svg width="54" height="60" fill="none" xmlns="http://www.w3.org/2000/svg"><path d="M40.774 60H.647c-.303 0-.53-.228-.53-.455V2.958c0-.303.227-.455.53-.455h40.127c.303 0 .53.227.53.455v56.587c-.075.227-.227.455-.53.455zm-39.672-.986h39.14V3.489H1.103v55.525zm47.712.152c-.152 0-.38-.076-.455-.303l-4.476-9.255c0-.075-.075-.151-.075-.227V17.523c0-.304.227-.456.53-.456h8.951c.304 0 .531.228.531.456v31.934c0 .076 0 .151-.076.227l-4.475 9.254c-.076.152-.303.228-.455.228zm-4.02-9.86l4.02 8.267 4.02-8.268V17.978h-8.04v31.327z" fill="#000"/><path d="M48.814 59.166c-.151 0-.379-.076-.455-.304l-1.29-2.654a.483.483 0 010-.456.592.592 0 01.304-.303c.834-.228 1.896-.228 2.807 0 .151 0 .303.152.303.303a.484.484 0 010 .456l-1.29 2.654c0 .228-.227.304-.379.304zm-.53-2.73l.53 1.137.531-1.138c-.38-.076-.758-.076-1.062 0z" fill="#000"/><path d="M46.31 48.547c-.293 0-.514-.226-.514-.452V17.519c0-.301.22-.452.515-.452.294 0 .514.226.514.452v30.576c0 .226-.22.452-.514.452zm2.348-.001c-.292 0-.439-.225-.512-.45L48 17.516c0-.3.22-.525.439-.525.292 0 .439.225.512.45l.146 30.58c0 .3-.22.525-.439.525zm2.356.759c-.29 0-.506-.227-.506-.455V17.522c0-.303.217-.455.506-.455.289 0 .506.228.506.456v31.251c-.073.303-.29.531-.506.531z" fill="#C47A2D"/><path d="M53.29 17.977h-8.951c-.304 0-.531-.227-.531-.455v-2.351a2.8 2.8 0 012.806-2.807h4.324a2.8 2.8 0 012.806 2.807v2.351c.076.228-.151.455-.455.455zm-8.496-.986h7.964v-1.82c0-.986-.834-1.82-1.82-1.82h-4.324c-.986 0-1.82.834-1.82 1.82v1.82z" fill="#000"/><path d="M34.023 18.432H7.398c-.303 0-.53-.228-.53-.455v-6.448c0-.303.227-.455.53-.455h26.625c.303 0 .53.228.53.455v6.448c0 .227-.227.455-.53.455zm-26.17-.986h25.639v-5.462H7.853v5.462z" fill="#C47A2D"/><path d="M33.568 22.68H7.929c-.303 0-.53-.228-.53-.455 0-.228.227-.456.53-.456h25.639c.303 0 .53.228.53.456 0 .227-.303.455-.53.455zm0 4.02H7.929c-.303 0-.53-.227-.53-.455 0-.303.227-.455.53-.455h25.639c.303 0 .53.228.53.455-.075.228-.303.455-.53.455zm0 4.02H15.894c-.304 0-.531-.227-.531-.454 0-.304.227-.455.53-.455h17.675c.303 0 .53.227.53.455-.075.227-.303.455-.53.455zm-6.448 4.021H7.853c-.303 0-.53-.227-.53-.455 0-.303.227-.455.53-.455H27.12c.303 0 .531.228.531.455-.076.228-.303.455-.531.455zm6.448 4.019H7.929c-.303 0-.53-.227-.53-.454 0-.304.227-.455.53-.455h25.639c.303 0 .53.227.53.455-.075.227-.303.455-.53.455zm0 4.021H13.315c-.304 0-.531-.227-.531-.455 0-.303.227-.455.53-.455h20.254c.303 0 .53.228.53.455-.075.228-.303.455-.53.455zm0 4.021H7.929c-.303 0-.53-.228-.53-.455 0-.304.227-.455.53-.455h25.639c.303 0 .53.227.53.455-.075.227-.303.455-.53.455zm3.034-40.885c-.304 0-.531-.228-.531-.456V.455c0-.303.227-.455.53-.455.304 0 .532.228.532.455v4.93a.519.519 0 01-.531.532zm-5.31 0c-.304 0-.531-.228-.531-.456V.455c0-.303.227-.455.53-.455.304 0 .532.228.532.455v4.93a.518.518 0 01-.531.532zm-5.31 0c-.303 0-.53-.228-.53-.456V.455c0-.303.227-.455.53-.455.304 0 .531.228.531.455v4.93a.518.518 0 01-.53.532zm-5.31 0c-.303 0-.53-.228-.53-.456V.455c0-.303.227-.455.53-.455.304 0 .531.228.531.455v4.93a.519.519 0 01-.53.532zm-5.31 0c-.303 0-.53-.228-.53-.456V.455c0-.303.227-.455.53-.455.304 0 .532.228.532.455v4.93a.518.518 0 01-.531.532zm-5.31 0c-.302 0-.53-.228-.53-.456V.455c0-.303.228-.455.53-.455.304 0 .532.228.532.455v4.93a.518.518 0 01-.531.532zm-5.233 0c-.303 0-.53-.228-.53-.456V.455c0-.303.227-.455.53-.455.303 0 .531.228.531.455v4.93c-.076.304-.303.532-.53.532zm48.546 43.995c-.076 0-.152 0-.227-.076l-1.442-.834-.91.758a.461.461 0 01-.607 0l-1.44-1.062-.987.986a.58.58 0 01-.38.152c-.151 0-.227-.076-.379-.152l-.986-.986-1.44 1.062c-.228.152-.532.076-.684-.076-.151-.227-.075-.53.076-.682l1.82-1.29c.228-.152.456-.152.608.076l.91.91.91-.91c.152-.152.455-.227.607-.076l1.441 1.062.91-.758c.152-.152.38-.152.607-.076l1.745 1.062a.494.494 0 01.152.682c.075.152-.076.228-.304.228z" fill="#000"/></svg>
